X:6986
T:The Lad From Balinrobe
O:england
R:Reel
C:Ed Reavy
M:2/2
L:1/8
N:Written to honor the memory of Steve Murphy,
N:Joe's father-in-law, who was born outside
N:Balinrobe in the Neale in the early nineteen hundreds.
N:Steve was a spirited man and a true friend.
K:D
D2 (3FED FGAB|=cdeg fd^ce|dcAG FGAc|dcAF GECE|D2 (3FED FGAB|
cBcd cAGA|dcdB =cBcA|1GE=cE D^CA,C:|2GE=cE D2||:(3ABc|defg addc|
Addc defd|=cdef gccB|=cdef gfeg|f2 ec dcAG|FGAB =cdeg|
(3fgf e^c dcAF|GECE D2:||fe|:defg abae|cdef gage|defg abaf|
gece d2 fg|abag efge|defd AB=cA|FGAB =cBAF|GE=cE D2 z:|
2GE=cE D^CA,C||
